X: 14358
T: Gallowglass, The
R: jig
M: 6/8
K: Adorian
|:cBA eAd|cAA ~A2B|c2A efg|dBG ~G2B|
cBA eAd|cea ~e2d|cBA GAB|1 ~E3 A2B:|2 cAA A2^g||
~a3 ~e2d|cAA A3|c2A efg|dBG ~G2e|
~a3 ~e2d|cea ~e2d|cBA GAB|~E3 A2^g|
~a3 ~e2d|cAA A3|c2A efg|dBG G2e|
aeg fdB|ecA BGE|ABc dAe|cAA A2B||

